!!!OTL: "Der Donaustrudel" GEH I HALT WOHL IN DEN WALD
!!!ARE: Europa, Mitteleuropa, Oesterreich
!!!SCT: Z1323
!!!YEM: Copyright 1995, estate of Helmut Schaffrath.
**kern
*ICvox
*Ivox
*M4/4
*k[f#c#]
*D:
=1
{4d
4d
4f#
4f#
=2
4a
8a
8dd
4f#
4r}
=3
{4e
8e
8g
4d
8f#
8a
=4
4a
8ff#
8ee
4dd
4r}
=5
{4a
4g
8f#
8a
8dd
8f#
=6
4a
4g
4.f#
8d}
=7
{4a
4g
8f#
8a
8dd
8f#
=8
4a
4g
4f#
8r}
{8d
=9
4d
4d
4d
8e
8f#
=10
4g
8b
8dd
4a
4r}
=11
{4e
8g
8b
4d
8f#
8a
=12
4a
8ff#
8ee
4dd
4r}
=13
{4d
8d
8d
4d
8e
8f#
=14
4g
8b
8dd
4a
4r}
=15
{4e
8g
8b
4d
8f#
8a
=16
4a
8ff#
8ee
4dd
4r}
==
!!!AGN: Zech -, Schalks - Lied
!!!ONB: ESAC (Essen Associative Code) Database: ZUCCAL
!!!AMT: simple quadruple
!!!AIN: vox
!!!EED: Helmut Schaffrath
!!!EEV: 1.0
*-
